src/raw/cursor/icon_24.svg

<svg width="24" height="24" viewBox="0 0 24 24" fill="none" xmlns="http://www.w3.org/2000/svg">
<path d="M21.4395 13.3085L9.06579 9.06515L13.3084 21.4395L15.4297 18.2575L20.0259 22.8537C20.1666 22.9944 20.3574 23.0734 20.5563 23.0734C20.7552 23.0734 20.946 22.9944 21.0866 22.8537L22.8544 21.086C22.995 20.9453 23.074 20.7545 23.074 20.5556C23.074 20.3567 22.995 20.166 22.8544 20.0253L18.2582 15.4291L21.4395 13.3085Z" stroke="#71717A" stroke-width="1.5" stroke-linecap="round" stroke-linejoin="round"/>
<path d="M8.43827 17C6.90659 16.8904 5.43869 16.3428 4.20944 15.4224C2.98018 14.5021 2.04137 13.2478 1.50484 11.809C0.968306 10.3701 0.856659 8.80739 1.1832 7.30689C1.50974 5.8064 2.2607 4.43138 3.34663 3.34564C4.43257 2.25989 5.8077 1.50917 7.30825 1.1829C8.80879 0.856622 10.3715 0.968549 11.8102 1.50534C13.249 2.04214 14.5031 2.98117 15.4232 4.2106C16.3247 5.41512 16.8683 6.84863 16.9928 8.34671" stroke="#71717A" stroke-width="1.5" stroke-linecap="round" stroke-linejoin="round"/>
<path d="M11 4.3205C10.0523 3.98005 9.02296 3.90907 8.03456 4.116C7.04615 4.32293 6.14035 4.79906 5.42505 5.48767C4.70975 6.17628 4.21509 7.04835 4 8" stroke="#71717A" stroke-width="1.5" stroke-linecap="round" stroke-linejoin="round"/>
</svg>

<svg xmlns="http://www.w3.org/2000/svg" width="24" height="24" fill="none" viewBox="0 0 24 24">
  <path stroke="#3F3F46" stroke-linecap="round" stroke-linejoin="round" stroke-width="1.5"
    d="M21.44 13.309 9.065 9.065l4.242 12.375 2.122-3.182 4.596 4.596a.75.75 0 0 0 1.06 0l1.768-1.768a.75.75 0 0 0 0-1.06l-4.596-4.597 3.181-2.12Z" />
  <path stroke="#3F3F46" stroke-linecap="round" stroke-linejoin="round" stroke-width="1.5"
    d="M8.438 17a8.01 8.01 0 1 1 8.56-8.583" />
  <path stroke="#3F3F46" stroke-linecap="round" stroke-linejoin="round" stroke-width="1.5"
    d="M11 4.32a5.469 5.469 0 0 0-2.965-.204 5.338 5.338 0 0 0-2.61 1.372A5.029 5.029 0 0 0 4 8" />
</svg>
